img/curso-icone.svg

<svg width="24" height="24" viewBox="0 0 24 24" fill="none" xmlns="http://www.w3.org/2000/svg">
<mask id="mask0_14_135" style="mask-type:alpha" maskUnits="userSpaceOnUse" x="0" y="0" width="24" height="24">
<rect width="24" height="24" fill="#D9D9D9"/>
</mask>
<g mask="url(#mask0_14_135)">
<path d="M14 10.0481V8.30541C14.55 8.06622 15.1127 7.88683 15.688 7.76723C16.2627 7.64764 16.8667 7.58784 17.5 7.58784C17.9333 7.58784 18.3583 7.62201 18.775 7.69035C19.1917 7.75869 19.6 7.84412 20 7.94663V9.58678C19.6 9.43302 19.196 9.31787 18.788 9.24132C18.3793 9.1641 17.95 9.12549 17.5 9.12549C16.8667 9.12549 16.2583 9.20681 15.675 9.36946C15.0917 9.53143 14.5333 9.75763 14 10.0481ZM14 15.6861V13.9434C14.55 13.7043 15.1127 13.5249 15.688 13.4053C16.2627 13.2857 16.8667 13.2259 17.5 13.2259C17.9333 13.2259 18.3583 13.26 18.775 13.3284C19.1917 13.3967 19.6 13.4822 20 13.5847V15.2248C19.6 15.0711 19.196 14.9559 18.788 14.8794C18.3793 14.8021 17.95 14.7635 17.5 14.7635C16.8667 14.7635 16.2583 14.8404 15.675 14.9942C15.0917 15.1479 14.5333 15.3786 14 15.6861ZM14 12.8671V11.1244C14.55 10.8852 15.1127 10.7058 15.688 10.5863C16.2627 10.4667 16.8667 10.4069 17.5 10.4069C17.9333 10.4069 18.3583 10.441 18.775 10.5094C19.1917 10.5777 19.6 10.6631 20 10.7656V12.4058C19.6 12.252 19.196 12.1369 18.788 12.0603C18.3793 11.9831 17.95 11.9445 17.5 11.9445C16.8667 11.9445 16.2583 12.0258 15.675 12.1885C15.0917 12.3504 14.5333 12.5767 14 12.8671ZM6.5 16.3012C7.28333 16.3012 8.046 16.3907 8.788 16.5697C9.52933 16.7495 10.2667 17.0187 11 17.3775V7.28031C10.3167 6.87027 9.59167 6.56274 8.825 6.35772C8.05833 6.15271 7.28333 6.0502 6.5 6.0502C5.9 6.0502 5.30433 6.10999 4.713 6.22959C4.121 6.34918 3.55 6.52857 3 6.76776V16.9162C3.58333 16.7112 4.16267 16.5574 4.738 16.4549C5.31267 16.3524 5.9 16.3012 6.5 16.3012ZM13 17.3775C13.7333 17.0187 14.471 16.7495 15.213 16.5697C15.9543 16.3907 16.7167 16.3012 17.5 16.3012C18.1 16.3012 18.6877 16.3524 19.263 16.4549C19.8377 16.5574 20.4167 16.7112 21 16.9162V6.76776C20.45 6.52857 19.8793 6.34918 19.288 6.22959C18.696 6.10999 18.1 6.0502 17.5 6.0502C16.7167 6.0502 15.9417 6.15271 15.175 6.35772C14.4083 6.56274 13.6833 6.87027 13 7.28031V17.3775ZM12 20.4016C11.2 19.7523 10.3333 19.2483 9.4 18.8895C8.46667 18.5308 7.5 18.3514 6.5 18.3514C5.8 18.3514 5.11267 18.4453 4.438 18.6333C3.76267 18.8212 3.11667 19.086 2.5 19.4277C2.15 19.6157 1.81267 19.6071 1.488 19.4021C1.16267 19.1971 1 18.8981 1 18.5051V6.15271C1 5.96477 1.046 5.78538 1.138 5.61453C1.22933 5.44368 1.36667 5.31554 1.55 5.23012C2.31667 4.82008 3.11667 4.51255 3.95 4.30753C4.78333 4.10251 5.63333 4 6.5 4C7.46667 4 8.41267 4.12814 9.338 4.38441C10.2627 4.64069 11.15 5.0251 12 5.53765C12.85 5.0251 13.7377 4.64069 14.663 4.38441C15.5877 4.12814 16.5333 4 17.5 4C18.3667 4 19.2167 4.10251 20.05 4.30753C20.8833 4.51255 21.6833 4.82008 22.45 5.23012C22.6333 5.31554 22.771 5.44368 22.863 5.61453C22.9543 5.78538 23 5.96477 23 6.15271V18.5051C23 18.8981 22.8377 19.1971 22.513 19.4021C22.1877 19.6071 21.85 19.6157 21.5 19.4277C20.8833 19.086 20.2373 18.8212 19.562 18.6333C18.8873 18.4453 18.2 18.3514 17.5 18.3514C16.5 18.3514 15.5333 18.5308 14.6 18.8895C13.6667 19.2483 12.8 19.7523 12 20.4016Z" fill="url(#paint0_linear_14_135)"/>
</g>
<defs>
<linearGradient id="paint0_linear_14_135" x1="12" y1="4" x2="12" y2="20.4016" gradientUnits="userSpaceOnUse">
<stop stop-color="#D2D904"/>
<stop offset="1" stop-color="#848900"/>
</linearGradient>
</defs>
</svg>

<svg xmlns="http://www.w3.org/2000/svg" width="24" height="24" fill="none"><mask id="a" width="24" height="24" x="0" y="0" maskUnits="userSpaceOnUse" style="mask-type:alpha"><path fill="#D9D9D9" d="M0 0h24v24H0z"/></mask><g mask="url(#a)"><path fill="url(#b)" d="M14 10.048V8.305a8.626 8.626 0 0 1 1.688-.538 8.877 8.877 0 0 1 1.812-.18c.433 0 .858.035 1.275.103.417.069.825.154 1.225.257v1.64a6.94 6.94 0 0 0-1.212-.346 6.928 6.928 0 0 0-1.288-.116c-.633 0-1.242.082-1.825.244a7.923 7.923 0 0 0-1.675.68Zm0 5.638v-1.743a8.631 8.631 0 0 1 1.688-.538 8.876 8.876 0 0 1 1.812-.18c.433 0 .858.035 1.275.103.417.069.825.154 1.225.257v1.64a6.94 6.94 0 0 0-1.212-.346 6.921 6.921 0 0 0-1.288-.115 7.13 7.13 0 0 0-1.825.23 6.82 6.82 0 0 0-1.675.692Zm0-2.819v-1.743a8.618 8.618 0 0 1 1.688-.538 8.876 8.876 0 0 1 1.812-.18c.433 0 .858.035 1.275.103.417.069.825.154 1.225.257v1.64a6.94 6.94 0 0 0-1.212-.346 6.93 6.93 0 0 0-1.288-.116c-.633 0-1.242.082-1.825.244a7.922 7.922 0 0 0-1.675.68Zm-7.5 3.434c.783 0 1.546.09 2.288.269.741.18 1.479.449 2.212.808V7.28a8.45 8.45 0 0 0-2.175-.922 8.963 8.963 0 0 0-4.112-.128A8.506 8.506 0 0 0 3 6.768v10.148a11.125 11.125 0 0 1 1.738-.461A10.015 10.015 0 0 1 6.5 16.3Zm6.5 1.077a10.84 10.84 0 0 1 2.213-.808 10.032 10.032 0 0 1 4.05-.115c.575.102 1.154.256 1.737.461V6.768a8.511 8.511 0 0 0-1.712-.538 9.007 9.007 0 0 0-4.113.128A8.449 8.449 0 0 0 13 7.28v10.098Zm-1 3.024a9.538 9.538 0 0 0-2.6-1.512 8.017 8.017 0 0 0-2.9-.539c-.7 0-1.387.094-2.062.282a8.917 8.917 0 0 0-1.938.795c-.35.188-.687.18-1.012-.026-.325-.205-.488-.504-.488-.897V6.153c0-.188.046-.368.138-.538a.869.869 0 0 1 .412-.385c.767-.41 1.567-.717 2.4-.922A10.635 10.635 0 0 1 6.5 4c.967 0 1.913.128 2.838.384.925.257 1.812.641 2.662 1.154.85-.513 1.738-.897 2.663-1.154C15.588 4.128 16.533 4 17.5 4c.867 0 1.717.103 2.55.308.833.205 1.633.512 2.4.922a.874.874 0 0 1 .413.385c.091.17.137.35.137.538v12.352c0 .393-.162.692-.487.897-.325.205-.663.214-1.013.026a8.918 8.918 0 0 0-1.938-.795 7.647 7.647 0 0 0-2.062-.282c-1 0-1.967.18-2.9.539-.933.358-1.8.862-2.6 1.512Z"/></g><defs><linearGradient id="b" x1="12" x2="12" y1="4" y2="20.402" gradientUnits="userSpaceOnUse"><stop stop-color="#D2D904"/><stop offset="1" stop-color="#848900"/></linearGradient></defs></svg>
